X:1060
T:Chip and Rant
A:North-West
M:3/2
O:England
R:Triple Hornpipe
Z:Richard Robinson 
%%TUNEURL: http://www.leeds.ac.uk/music/Info/RRTuneBk/gettune/000004e8.html
%%ID:000004e8
K:G
gdBd gfgd cBAG| gdBd gabg afed| gdBd gfgd cBAG| ABcd ecBA BdBG::
gaba gfed cBAG| gabg afed efg2| gaba gfed cBAG| ABcd ecBA BdBG::
g2fe dBGB dBGB| g2fe dBGB dBGB| gfge dBGB dBGB| ABcd ecBA BdBG:|
